X: 39044
T: Swansea
R: hornpipe
M: 4/4
K: Gmajor
~|ABcA GFED|~ or ~|AGFE D2 Bc|~
d2 g2 gdBG|c2 e2 e2 ge|dBdB edcB|ABcA GFED|
d2 g2 gdBd|c2 e2 e2 ge|dBdB ecAF|G2 B2 G2:|
dBGB d2 gd|ecGc e2 ge|dBdB edcB|AGFE D2 Bc|
dBdB d2 g2|ecec e2 g2|dBdB ecAF|G2 B2 G2:|

